icons/truffle-light.svg

<svg width="256" height="256" viewBox="0 0 256 256" fill="none" xmlns="http://www.w3.org/2000/svg">
<path d="M196 0H60C26.8629 0 0 26.8629 0 60V196C0 229.137 26.8629 256 60 256H196C229.137 256 256 229.137 256 196V60C256 26.8629 229.137 0 196 0Z" fill="#F4F2ED"/>
<path d="M128.168 230.28C183.927 230.28 229.128 184.55 229.128 128.14C229.128 71.7296 183.927 26 128.168 26C72.4098 26 27.2085 71.7296 27.2085 128.14C27.2085 184.55 72.4098 230.28 128.168 230.28Z" fill="#5E464D"/>
<path d="M96.4183 218.71C100.548 220.12 114.418 224.63 115.008 220.22C115.328 217.8 108.008 215.32 98.0983 210.07C84.0036 202.621 71.1094 193.094 59.8483 181.81C43.4112 165.693 33.9597 143.766 33.5283 120.75C32.6883 89.85 44.7683 64.87 64.6383 48.75C52.6402 58.0105 42.8595 69.8314 36.0089 83.351C29.1582 96.8706 25.4103 111.748 25.0383 126.9C24.4483 149.25 30.6983 168.08 42.4383 185.22C46.0838 189.929 50.3452 194.126 55.1083 197.7C66.3583 206.21 82.8083 214.08 96.4183 218.7" fill="white"/>
<path d="M230.518 104.73C224.258 75.2899 204.798 54.6799 178.768 40.1199C198.718 54.2899 226.718 84.4199 210.168 111C196.168 132.29 162.168 128.12 143.518 118C121.398 106 93.7181 78.9999 121.018 52.6099C138.718 35.5299 195.018 54.6799 185.108 80.2099C179.328 95.0599 156.828 91.7599 146.708 84.4999C139.248 79.1399 132.968 69.9299 136.298 60.4199C137.358 57.3699 137.208 52.6399 132.898 56.1199C129.718 58.7199 128.068 62.9999 127.508 66.9999C122.798 100.29 182.108 126.1 199.708 93.8899C208.838 77.1699 194.038 52.8899 175.408 42.9499C161.408 35.4499 146.838 30.1799 128.978 31.4599C100.418 33.4599 76.4581 51.3599 73.4481 80.5399C70.4481 109.54 89.838 135.64 112.668 151.25C136.668 167.65 168.928 178.46 198.448 168.68C224.908 159.91 235.838 129.54 230.518 104.75" fill="white"/>
<path d="M193.278 82.1799C196.118 63.0999 178.868 49.9999 162.938 44.0499C144.158 37.0499 119.348 40.1099 105.668 55.6599C95.6682 67.0799 96.3182 83.6599 101.478 97.0799C109.278 117.35 126.888 132 147.388 138.33C161.958 142.83 179.568 144.79 194.328 140.04C215.858 133.11 222.868 110.66 218.418 90.0899C217.465 85.6431 216.002 81.3211 214.058 77.2099C211.338 71.4999 203.008 59.9399 214.488 74.0199C215.692 75.5891 216.8 77.2286 217.808 78.9299C220.176 82.8201 222.054 86.9885 223.398 91.3399C229.658 110.54 224.748 132.94 207.398 144.53C194.088 153.4 177.168 154.46 161.728 152.24C141.028 149.24 121.518 139.24 107.958 123.15C95.5782 108.48 87.1282 87.4099 92.2182 68.1499C95.9482 54.0599 107.388 43.5399 121.088 39.1499C138.418 33.5399 157.498 36.1499 173.088 45.2599C180.908 49.8099 188.088 56.1099 192.088 64.3699C193.897 68.0909 194.87 72.1629 194.938 76.2999C194.978 77.9755 194.847 79.6507 194.548 81.2999C194.438 81.8999 193.168 83.5899 193.348 82.1999" fill="#3FE0C5"/>
</svg>

<svg xmlns="http://www.w3.org/2000/svg" width="256" height="256" fill="none"><path fill="#F4F2ED" d="M196 0H60C26.863 0 0 26.863 0 60v136c0 33.137 26.863 60 60 60h136c33.137 0 60-26.863 60-60V60c0-33.137-26.863-60-60-60"/><path fill="#5E464D" d="M128.168 230.28c55.759 0 100.96-45.73 100.96-102.14S183.927 26 128.168 26 27.208 71.73 27.208 128.14s45.202 102.14 100.96 102.14"/><path fill="#fff" d="M96.418 218.71c4.13 1.41 18 5.92 18.59 1.51.32-2.42-7-4.9-16.91-10.15a159 159 0 0 1-38.25-28.26 87.82 87.82 0 0 1-26.32-61.06c-.84-30.9 11.24-55.88 31.11-72a101.88 101.88 0 0 0-39.6 78.15c-.59 22.35 5.66 41.18 17.4 58.32a66.5 66.5 0 0 0 12.67 12.48c11.25 8.51 27.7 16.38 41.31 21"/><path fill="#fff" d="M230.518 104.73c-6.26-29.44-25.72-50.05-51.75-64.61 19.95 14.17 47.95 44.3 31.4 70.88-14 21.29-48 17.12-66.65 7-22.12-12-49.8-39-22.5-65.39 17.7-17.08 74 2.07 64.09 27.6-5.78 14.85-28.28 11.55-38.4 4.29-7.46-5.36-13.74-14.57-10.41-24.08 1.06-3.05.91-7.78-3.4-4.3-3.18 2.6-4.83 6.88-5.39 10.88-4.71 33.29 54.6 59.1 72.2 26.89 9.13-16.72-5.67-41-24.3-50.94-14-7.5-28.57-12.77-46.43-11.49-28.56 2-52.52 19.9-55.53 49.08-3 29 16.39 55.1 39.22 70.71 24 16.4 56.26 27.21 85.78 17.43 26.46-8.77 37.39-39.14 32.07-63.93"/><path fill="#3FE0C5" d="M193.278 82.18c2.84-19.08-14.41-32.18-30.34-38.13-18.78-7-43.59-3.94-57.27 11.61-10 11.42-9.35 28-4.19 41.42 7.8 20.27 25.41 34.92 45.91 41.25 14.57 4.5 32.18 6.46 46.94 1.71 21.53-6.93 28.54-29.38 24.09-49.95a59 59 0 0 0-4.36-12.88c-2.72-5.71-11.05-17.27.43-3.19a50 50 0 0 1 3.32 4.91 55.2 55.2 0 0 1 5.59 12.41c6.26 19.2 1.35 41.6-16 53.19-13.31 8.87-30.23 9.93-45.67 7.71-20.7-3-40.21-13-53.77-29.09-12.38-14.67-20.83-35.74-15.74-55 3.73-14.09 15.17-24.61 28.87-29 17.33-5.61 36.41-3 52 6.11 7.82 4.55 15 10.85 19 19.11a28.35 28.35 0 0 1 2.85 11.93 24.7 24.7 0 0 1-.39 5c-.11.6-1.38 2.29-1.2.9"/></svg>
